X:1
T:Wachet Auf
T:Wachet Auf
T:Philipp Nicolai, 1599
T:Public Domain Courtesy of the Cyber Hymnal™
C:Philipp Nicolai, 1599
Z:Public Domain
Z:Courtesy of the Cyber Hymnal™
%%score ( 1 2 ) ( 3 4 )
L:1/8
Q:1/4=113
M:4/4
K:C
V:1 treble 
V:2 treble 
V:3 bass 
V:4 bass 
V:1
 [G,C]2 [CE]2 G3 z G | [EG]2 [DG]2 A4 | [DG]6 [DG]2 | c2 z [Ec] [Fd] [Ge]2 | [Gd]2 [Ac]2 B2 A2 x | %5
 [DG]6 [EG]2 | [Fc]2 [EG]2 [CA]2 [CE]2 | FE [B,D]2 [G,C]6 | [G,C]2 [CE]2 G3 z G | [EG]2 [DG]2 A4 | %10
 [DG]6 [DF]2 | c2 z [Ec] [Fd] [Ge]2 | [Gd]2 [Ac]2 B2 z x2 | [DG]6 [EG]2 | [Fc]2 [EG]2 [CA]2 [CE]2 | %15
 FE [B,D]2 [G,C]6 [DG]2 | [EG]3 [DF] E2 [B,D]2 | [A,C]6 G2 | G3 F E2 z x2 | [G,C]6 [B,D]2 | %20
 [CE]2 F2 !fermata![CE]2 [EG]2 | A2 B2 [Ec]2 [Ec][Fd] | e2 z !fermata![Ec]2 G2 x2 | %23
 c2 [FA]2 [CE]2 x3 | FE [B,D]2 [G,C]4 |] %25
V:2
 x4 E2 D2 x | x4 (E2 D2) | x8 | G3 G2 F x | x4 AG-G^F x | x8 | x8 | C2 x8 | x4 E2 D2 x | x4 E2 D2 | %10
 x8 | G3 G2 F x | x4 AG A2 ^F | x8 | x8 | C2 x10 | x4 G,A, x2 | x6 B,C | D2 D-D [B,D]B, D2 B, | %19
 x8 | x2 CB, x4 | ED DE x4 | G3 d2 F x EF | GF GE x5 | C2 x6 |] %25
V:3
 [C,E,]2 [C,G,]2 C2 B,2 x | C2 G,2 G,2 [D,^F,]2 | [G,,B,]6 B,2 | C2 C2 [C,G,]2 x | %4
 D2 D2 D3 z [D,A,] | [G,,B,]6 C2 | C2 (C_B,) A,2 A,2 | (A,G,) [G,,F,]2 [C,E,]6 | %8
 [C,E,]2 [C,G,]2 C2 B,2 x | C2 G,2 G,2 [D,^F,]2 | [G,,B,]6 B,2 | C2 C2 [C,G,]2 x | D2 D2 D3 z A, | %13
 [G,,B,]6 C2 | C2 (C_B,) A,2 x2 | (A,G,) [G,,F,]2 [C,E,]6 [B,,G,]2 | (CB,) A,B, C2 (G,[G,,F,]) | %17
 [A,,E,]6 [E,G,]2 | [B,,G,][A,,A,] [G,,B,]2 G,A,-A,G, x | [C,E,]6 (G,F,) | %20
 [E,G,]2 (A,F,) !fermata![C,G,]2 x2 | [^F,C]2 [^G,B,]2 A,2 [A,C]2 | %22
 C2 [G,B,]2 !fermata![A,,C]2 C2 x | G,2 C2 C3 z x | A,G, [G,,F,]2 [C,E,]4 |] %25
V:4
 x4 C,D, (G,F,) x | (E,D,) (C,B,,) C,A,, x2 | x6 (G,F,) | (E,F,) (E,D,) C2 x | %4
 (B,A,) (G,^F,) G,2 D,2 x | x6 (C,_B,,) | (A,,_B,,) C,2 (F,G,) x2 | D,2 x8 | x4 (C,E,) (G,F,) x | %9
 (E,D,) (C,B,,) (C,A,,) x2 | x6 (G,F,) | (E,F,) (E,D,) C2 x | B,A, (G,^F,) G,2 D,2 D, | %13
 x6 (C,_B,,) | (A,,_B,,) C,2 (F,G,) A,2 | D,2 x10 | C,2 D,2 E,F, x2 | x8 | x4 C,A,, F,,G,, x | x8 | %20
 x2 D,2 C2 x2 | x8 | (E,F,) x3 C,D, x2 | E,D, E,C, (F,,G,,) A,2 A,, | D,2 x6 |] %25

